X:157
T:Waltz. Le4.157
Q:3/4=50
L:1/4
B:L.Leadley MS#4 c1850
Z:vmp.Mike Hicken 2016 www.village-music-project.org.uk
M:3/4
K:F
c/=B/|czc/=B/|cz a/g/|f/e/d/c/B/A/|cB B/A/|Bz B/A/|Bz a/g/|f/e/d/c/d/e/|f2 :|
|:c|e e/e/ e|e/f/g/e/ c|c a/g/f/e/|d/c/B/A/G/F/|d d/d/ d|cfA|G/A/B/c/d/e/|f2 :|
|: c|(a2g)|(f/e/g/f/) (3e/f/d/|Tc3|A2z|(c'=b_b)|(agf)|a3|(g2c)|
(a2 g/a/)|(bag)|(gfe)|(d/a/g/f/e/d/)|(c3/ d/c/=B/)| cde|g3|f2 :|
|:c|g2f|edc|a3|f2^f|g2=f|edc|a3/ g/e/g/|f/c/d/e/f/g/|
a2 g/a/|bag|gfe|d/a/g/f/e/d/|c3/ d/c/=B/|cde|g3|f2 :|

